svg/暂停.svg

<svg width="24" height="24" viewBox="0 0 24 24" fill="none" xmlns="http://www.w3.org/2000/svg"><circle cx="12" cy="12" r="12" fill="#F4F4F5"/><path d="M9.94866 7.89771H9.53841C9.08525 7.89771 8.7179 8.26506 8.7179 8.71822V15.2823C8.7179 15.7355 9.08525 16.1028 9.53841 16.1028H9.94866C10.4018 16.1028 10.7692 15.7355 10.7692 15.2823V8.71822C10.7692 8.26506 10.4018 7.89771 9.94866 7.89771Z" fill="#6B7280"/><path d="M14.4616 7.89771H14.0513C13.5982 7.89771 13.2308 8.26506 13.2308 8.71822V15.2823C13.2308 15.7355 13.5982 16.1028 14.0513 16.1028H14.4616C14.9148 16.1028 15.2821 15.7355 15.2821 15.2823V8.71822C15.2821 8.26506 14.9148 7.89771 14.4616 7.89771Z" fill="#6B7280"/><defs><clipPath id="clip0_326_19041"><rect width="24" height="24" fill="white"/></clipPath></defs></svg>

<svg fill="none" viewBox="0 0 24 24"><circle cx="12" cy="12" r="12" fill="#F4F4F5"/><path fill="#6B7280" d="M9.949 7.898h-.41a.82.82 0 0 0-.821.82v6.564c0 .454.367.82.82.82h.41a.82.82 0 0 0 .821-.82V8.718a.82.82 0 0 0-.82-.82"/><path fill="#6B7280" d="M14.462 7.898h-.41a.82.82 0 0 0-.821.82v6.564c0 .454.367.82.82.82h.41a.82.82 0 0 0 .821-.82V8.718a.82.82 0 0 0-.82-.82"/></svg>
